X:350
T: Caoyuan shang samanle jinse de yangguang
N: C1851
O: China,Qinghai Haixi
S: I, 219]
N: Menggu
R: Shange]
M: 2/4
L: 1/16
K: G
D4D2E2 | G2ABG2E2 | d2egedB2 | A6B2 |
d3eE2G2 | B3dA2G2 | E2EGABd2 | D6E2 |
D4D2E2 | G2ABG2E2 | d2egedBd | A6B2 |
d3eE2G2 | B3dA2G2 | E3GABd2 | D8

@@@ Tune index: 6905
